Default.style/theme_park.svg

<?xml version="1.0" encoding="UTF-8" standalone="no"?>
<svg width="30px" height="34px" viewBox="0 0 30 34" version="1.1" xmlns="http://www.w3.org/2000/svg" xmlns:xlink="http://www.w3.org/1999/xlink" xmlns:sketch="http://www.bohemiancoding.com/sketch/ns">
    <!-- Generator: Sketch 3.2.2 (9983) - http://www.bohemiancoding.com/sketch -->
    <title>theme_park</title>
    <desc>Created with Sketch.</desc>
    <defs></defs>
    <g id="p" stroke="none" stroke-width="1" fill="none" fill-rule="evenodd" sketch:type="MSPage">
        <g id="theme_park" sketch:type="MSLayerGroup" fill="#888888">
            <path d="M14.8467555,16.4119942 L23.9155265,32.0007326 L6.13248507,32.0007326 L14.8467555,16.4119942 Z M14.8467555,12 L2,34 L4.79850171,34 L25.3370791,34 L28,34 L14.8467555,12 L14.8467555,12 Z" id="Path" sketch:type="MSShapeGroup"></path>
            <path d="M15,19.624478 C17.5661416,19.624478 19.6464103,17.5400055 19.6464103,14.9686784 C19.6464103,12.3973513 17.5661416,10.3128789 15,10.3128789 C12.4338584,10.3128789 10.3535897,12.3973513 10.3535897,14.9686784 C10.3535897,17.5400055 12.4338584,19.624478 15,19.624478 Z M15,4.25771252 C9.10527023,4.25771252 4.31063458,9.06304729 4.31063458,14.9686784 C4.31063458,20.8743096 9.10627857,25.6806547 15,25.6806547 C20.8937214,25.6806547 25.6893654,20.87532 25.6893654,14.9696888 C25.6893654,9.06405766 20.8937214,4.25771252 15,4.25771252 L15,4.25771252 Z M8.51649588,25.3537615 C9.648584,26.0659315 10.9047837,26.5974934 12.2445491,26.9078192 L12.2445491,26.9078192 C12.2330058,27.0107735 12.2270772,27.1154299 12.2270772,27.2214738 C12.2270772,28.7560114 13.468557,30 15,30 C16.531443,30 17.7729228,28.7560114 17.7729228,27.2214738 C17.7729228,27.115448 17.7669962,27.0108093 17.7554568,26.9078721 C19.0838458,26.600232 20.3300821,26.0751294 21.454644,25.372147 L21.454644,25.372147 C21.9626965,26.0108871 22.7457861,26.4202479 23.6242942,26.4202479 C25.1557372,26.4202479 26.397217,25.1762593 26.397217,23.6417217 C26.397217,22.7650753 25.9920506,21.9832519 25.3591192,21.4740113 C26.0725208,20.33742 26.6048513,19.07572 26.915253,17.729832 L26.915253,17.729832 C27.0176135,17.7413101 27.1216584,17.7472046 27.2270772,17.7472046 C28.7585202,17.7472046 30,16.5032161 30,14.9686784 C30,13.4341408 28.7585202,12.1901522 27.2270772,12.1901522 C27.1215065,12.1901522 27.0173138,12.1960638 26.9148107,12.2075745 C26.6053524,10.8667149 26.0756306,9.60940541 25.3660492,8.47613175 L25.3660492,8.47613175 C25.994428,7.96675335 26.3962087,7.18780808 26.3962087,6.31483228 C26.3962087,4.78029463 25.1547288,3.53630608 23.6232858,3.53630608 C22.7504524,3.53630608 21.9718087,3.9403955 21.4635152,4.57205807 C20.338354,3.86726661 19.0911456,3.34065653 17.7615428,3.03196073 C17.7690748,2.94849282 17.7729228,2.8639598 17.7729228,2.7785262 C17.7729228,1.24398855 16.531443,0 15,0 C13.468557,0 12.2270772,1.24398855 12.2270772,2.7785262 C12.2270772,2.8639416 12.2309236,2.94845681 12.2384523,3.03190739 L12.2384523,3.03190739 C10.8992898,3.34277135 9.64371086,3.87466168 8.51222973,4.58700165 C8.00360944,3.97171132 7.23533882,3.57975212 6.37570583,3.57975212 C4.84426284,3.57975212 3.60278301,4.82374068 3.60278301,6.35827832 C3.60278301,7.22308189 3.99707641,7.99560719 4.61535478,8.50520166 L4.61535478,8.50520166 C3.91494709,9.6308694 3.39169366,10.8781325 3.0849742,12.2075504 C2.98254045,12.1960555 2.87841964,12.1901522 2.77292283,12.1901522 C1.24147984,12.1901522 0,13.4341408 0,14.9686784 C0,16.5032161 1.24147984,17.7472046 2.77292283,17.7472046 C2.87841545,17.7472046 2.98253218,17.7413018 3.084962,17.7298078 L3.084962,17.7298078 C3.39334668,19.0665221 3.9206316,20.320217 4.62678994,21.4507848 C3.97710821,21.9593042 3.55942458,22.7516368 3.55942458,23.6417217 C3.55942458,25.1762593 4.80090441,26.4202479 6.33234741,26.4202479 C7.21925575,26.4202479 8.00891207,26.0030211 8.51649588,25.3537615 Z" id="Shape" sketch:type="MSShapeGroup"></path>
        </g>
    </g>
</svg>

<svg width="30" height="34" xmlns="http://www.w3.org/2000/svg"><g fill="#888" fill-rule="evenodd"><path d="m14.847 16.412 9.069 15.589H6.132l8.715-15.589Zm0-4.412L2 34h26L14.847 12Z"/><path d="M15 19.624a4.651 4.651 0 0 0 4.646-4.655A4.651 4.651 0 0 0 15 10.313a4.651 4.651 0 0 0-4.646 4.656A4.651 4.651 0 0 0 15 19.624Zm0-15.366c-5.895 0-10.69 4.805-10.69 10.71 0 5.906 4.796 10.713 10.69 10.713 5.894 0 10.69-4.806 10.69-10.711 0-5.906-4.796-10.712-10.69-10.712ZM8.516 25.354a12.146 12.146 0 0 0 3.729 1.554A2.776 2.776 0 0 0 15 30a2.776 2.776 0 0 0 2.755-3.092 12.146 12.146 0 0 0 3.7-1.536 2.766 2.766 0 0 0 2.17 1.048 2.776 2.776 0 0 0 2.772-2.778c0-.877-.405-1.659-1.038-2.168a12.196 12.196 0 0 0 1.556-3.744A2.776 2.776 0 0 0 30 14.969a2.776 2.776 0 0 0-3.085-2.761c-.31-1.341-.84-2.599-1.549-3.732a2.775 2.775 0 0 0 1.03-2.161 2.776 2.776 0 0 0-2.773-2.779c-.873 0-1.651.404-2.16 1.036a12.146 12.146 0 0 0-3.701-1.54A2.776 2.776 0 0 0 15 0a2.776 2.776 0 0 0-2.762 3.032c-1.339.31-2.594.843-3.726 1.555A2.765 2.765 0 0 0 6.376 3.58a2.776 2.776 0 0 0-2.773 2.778c0 .865.394 1.638 1.012 2.147a12.195 12.195 0 0 0-1.53 3.703A2.776 2.776 0 0 0 0 14.969a2.776 2.776 0 0 0 3.085 2.76c.308 1.338.836 2.591 1.542 3.722a2.776 2.776 0 0 0-1.068 2.19 2.776 2.776 0 0 0 2.773 2.78c.887 0 1.677-.418 2.184-1.067Z"/></g></svg>
